libs/shared/images/icons-sharp-light/face-expressionless.svg

<svg xmlns="http://www.w3.org/2000/svg" viewBox="0 0 512 512"><defs><style>.fa-secondary{opacity:.4}</style></defs><path class="fa-secondary" d="M0 256a256 256 0 1 0 512 0A256 256 0 1 0 0 256zm128-64l16 0 64 0 16 0 0 32-16 0-64 0-16 0 0-32zm16 144l16 0 192 0 16 0 0 32-16 0-192 0-16 0 0-32zM288 192l16 0 64 0 16 0 0 32-16 0-64 0-16 0 0-32z"/><path class="fa-primary" d="M144 192l-16 0 0 32 16 0 64 0 16 0 0-32-16 0-64 0zm160 0l-16 0 0 32 16 0 64 0 16 0 0-32-16 0-64 0z"/></svg>

<svg xmlns="http://www.w3.org/2000/svg" viewBox="0 0 512 512"><path d="M480 256A224 224 0 1 0 32 256a224 224 0 1 0 448 0zM0 256a256 256 0 1 1 512 0A256 256 0 1 1 0 256zm160 80H352h16v32H352 160 144V336h16zM128 192h16 64 16v32H208 144 128V192zm176 0h64 16v32H368 304 288V192h16z"/></svg>
